svg/vector_difference_ab.svg

<svg xmlns="http://www.w3.org/2000/svg" viewBox="0 0 24 24"><path d="M3 1c-1.11 0-2 .89-2 2v2h2V3h2V1zm4 0v2h3V1zm5 0v2h2v2h2V3c0-1.11-.89-2-2-2zM1 7v3h2V7zm13 0v7H7v6c0 1.11.89 2 2 2h11c1.11 0 2-.89 2-2V9c0-1.11-.89-2-2-2zm2 2h4v11H9v-4h5c1.11 0 2-.89 2-2zM1 12v2c0 1.11.89 2 2 2h2v-2H3v-2z"/></svg>

<?xml version="1.0" encoding="UTF-8"?><!DOCTYPE svg PUBLIC "-//W3C//DTD SVG 1.1//EN" "http://www.w3.org/Graphics/SVG/1.1/DTD/svg11.dtd"><svg xmlns="http://www.w3.org/2000/svg" xmlns:xlink="http://www.w3.org/1999/xlink" version="1.1" id="mdi-vector-difference-ab" width="24" height="24" viewBox="0 0 24 24"><path d="M3,1C1.89,1 1,1.89 1,3V5H3V3H5V1H3M7,1V3H10V1H7M12,1V3H14V5H16V3C16,1.89 15.11,1 14,1H12M1,7V10H3V7H1M14,7C14,7 14,11.67 14,14C11.67,14 7,14 7,14C7,14 7,18 7,20C7,21.11 7.89,22 9,22H20C21.11,22 22,21.11 22,20V9C22,7.89 21.11,7 20,7C18,7 14,7 14,7M16,9H20V20H9V16H14C15.11,16 16,15.11 16,14V9M1,12V14C1,15.11 1.89,16 3,16H5V14H3V12H1Z" /></svg>
